tools/download-figma-icons/icons/outlined-medium/care.svg

<svg width="24" height="24" viewBox="0 0 24 24" fill="none" xmlns="http://www.w3.org/2000/svg">
<path fill-rule="evenodd" clip-rule="evenodd" d="M12.8574 1.49997C12.2379 1.49997 11.6514 1.75871 11.2074 2.22745C10.2707 3.21518 10.2602 4.8089 11.1842 5.78013L15.3796 10.2035L19.5675 5.78538C20.4907 4.8104 20.4802 3.21443 19.545 2.22745C19.1003 1.75871 18.5145 1.49997 17.8943 1.49997C17.2861 1.49997 16.7146 1.74971 16.2848 2.20345L15.9203 2.58745C15.6376 2.88669 15.1149 2.88669 14.8321 2.58745L14.4684 2.20421C14.0379 1.74971 13.4664 1.49997 12.8582 1.49997H12.8574ZM15.3796 12.0433C15.1741 12.0433 14.9769 11.9593 14.8359 11.8093L10.096 6.81286C8.632 5.27389 8.6425 2.75319 10.1185 1.19623C10.8482 0.425241 11.8209 0 12.8567 0H12.8582C13.7986 0 14.6836 0.350993 15.3766 0.99298C16.0681 0.350993 16.9538 0 17.8943 0H17.8951C18.9308 0 19.9035 0.425241 20.6333 1.19623C22.1085 2.75244 22.119 5.27389 20.6565 6.81661L15.9241 11.8085C15.7831 11.9585 15.5859 12.0433 15.3796 12.0433ZM11.9383 22.4446L22.195 17.4257C22.4643 17.2937 22.5768 16.9652 22.4448 16.6922C22.381 16.5617 22.2708 16.4634 22.1336 16.4154C21.9971 16.3682 21.8508 16.3787 21.7226 16.4417L17.0299 18.7344C17.0239 18.7376 17.0176 18.7387 17.0111 18.7397C17.0054 18.7407 16.9995 18.7417 16.9939 18.7442C16.7112 18.8919 16.3954 18.9841 16.0542 18.9841H9.10782C8.69307 18.9841 8.35783 18.6489 8.35783 18.2342C8.35783 17.8194 8.69307 17.4842 9.10782 17.4842H16.0542C16.3534 17.4842 16.5964 17.2389 16.5964 16.9382C16.5964 16.6367 16.3534 16.3914 16.0542 16.3914C16.0534 16.3914 16.0519 16.3907 16.0512 16.3907H10.9865C10.646 16.3907 10.3483 16.162 10.2613 15.8342C10.2418 15.769 9.68005 13.9997 6.71236 13.9997H1.49997V19.1836L11.9383 22.4446ZM22.6233 14.998C23.14 15.1765 23.5555 15.5455 23.794 16.0375C24.286 17.0507 23.8653 18.2777 22.855 18.7726L12.3305 23.9235C12.3239 23.9266 12.3171 23.9275 12.3105 23.9284C12.3044 23.9292 12.2984 23.93 12.293 23.9325C12.2015 23.9715 12.1048 23.9993 12.0028 24H12.0013H12.0005H11.9998C11.999 24 11.9978 23.9998 11.9967 23.9997C11.9956 23.9995 11.9945 23.9993 11.9938 23.9993C11.9233 23.9985 11.8535 23.9865 11.786 23.967C11.7845 23.9667 11.783 23.9665 11.7815 23.9663C11.78 23.9661 11.7785 23.9659 11.777 23.9655L0.526489 20.4504C0.212996 20.3529 0 20.0634 0 19.7349V13.2498C0 12.835 0.335993 12.4998 0.749985 12.4998H6.71236C9.7798 12.4998 11.0233 14.035 11.4785 14.8907H16.0542C16.0564 14.8907 16.0587 14.8922 16.0617 14.8922C17.0554 14.896 17.8819 15.6152 18.0581 16.5624L21.0633 15.094C21.5546 14.8547 22.1073 14.8202 22.6233 14.998Z" fill="black"/>
</svg>

<svg xmlns="http://www.w3.org/2000/svg" width="24" height="24" fill="none" viewBox="0 0 24 24"><path fill="currentColor" fill-rule="evenodd" d="M12.857 1.5c-.62 0-1.206.259-1.65.727-.936.988-.947 2.582-.023 3.553l4.196 4.424 4.187-4.419c.924-.975.913-2.57-.022-3.558a2.26 2.26 0 0 0-1.65-.727c-.609 0-1.18.25-1.61.703l-.365.384a.77.77 0 0 1-1.088 0l-.364-.383a2.2 2.2 0 0 0-1.61-.704m2.523 10.543a.75.75 0 0 1-.544-.234l-4.74-4.996c-1.464-1.54-1.453-4.06.022-5.617A3.75 3.75 0 0 1 12.857 0h.001c.94 0 1.826.351 2.519.993A3.68 3.68 0 0 1 17.894 0h.001c1.036 0 2.009.425 2.738 1.196 1.476 1.556 1.486 4.078.024 5.62l-4.733 4.993a.75.75 0 0 1-.544.234m-3.442 10.402 10.257-5.02a.55.55 0 0 0-.061-1.01.53.53 0 0 0-.411.027l-4.693 2.292-.019.006q-.009 0-.017.004c-.283.148-.599.24-.94.24H9.108a.75.75 0 1 1 0-1.5h6.946c.3 0 .542-.245.542-.546a.545.545 0 0 0-.542-.547h-5.067a.75.75 0 0 1-.726-.557C10.241 15.77 9.681 14 6.712 14H1.5v5.184zm10.685-7.447c.517.179.932.548 1.171 1.04a2.05 2.05 0 0 1-.939 2.735l-10.524 5.15q-.01.005-.02.005l-.018.005a.8.8 0 0 1-.29.067h-.009a.8.8 0 0 1-.208-.033h-.005l-.004-.002L.527 20.45A.75.75 0 0 1 0 19.735V13.25a.75.75 0 0 1 .75-.75h5.962c3.068 0 4.311 1.535 4.767 2.39h4.575l.008.002c.993.004 1.82.723 1.996 1.67l3.005-1.468a2.03 2.03 0 0 1 1.56-.096" clip-rule="evenodd"/></svg>
